icons/male_condom_fill.svg

<svg width="48" height="48" viewBox="0 0 48 48" fill="none" xmlns="http://www.w3.org/2000/svg">
<path fill-rule="evenodd" clip-rule="evenodd" d="M27.8858 6L31.9944 7.1404L31.262 9.99025L33.9955 10.7539L33.263 13.6037L35.9965 14.3673L35.2641 17.2172L37.9976 17.9808L37.2652 20.8307L39.9987 21.5943L39.2662 24.4442L41.9998 25.2078L40.8927 29.4876L20.1054 42L16.0051 40.8546L16.7375 38.0047L14.004 37.2411L14.7365 34.3912L12.003 33.6276L12.7354 30.7778L10.0019 30.0141L10.7343 27.1643L8.00083 26.4007L8.73327 23.5508L5.99976 22.7872L7.09006 18.5174L27.8858 6ZM16.2073 28.5005C18.6926 32.8052 24.1969 34.28 28.5015 31.7948C32.8061 29.3095 34.281 23.8052 31.7957 19.5005C29.3105 15.1959 23.8061 13.721 19.5015 16.2063C15.1969 18.6916 13.722 24.1959 16.2073 28.5005ZM17.9415 27.4984C19.8742 30.8459 24.1546 31.9929 27.5021 30.0602C30.8496 28.1275 31.9965 23.8471 30.0638 20.4996C28.1312 17.1521 23.8507 16.0052 20.5032 17.9379C17.1558 19.8705 16.0088 24.1509 17.9415 27.4984ZM26.4996 28.3293C24.1085 29.7098 21.0511 28.8906 19.6706 26.4995C18.2901 24.1085 19.1093 21.051 21.5004 19.6705C23.8915 18.2901 26.9489 19.1093 28.3294 21.5004C29.7099 23.8914 28.8906 26.9489 26.4996 28.3293ZM25.5912 26.7537C24.0698 27.6321 22.1245 27.1108 21.2462 25.5895C20.3678 24.0681 20.8891 22.1228 22.4104 21.2445C23.9317 20.3661 25.8771 20.8874 26.7554 22.4087C27.6337 23.9301 27.1125 25.8754 25.5912 26.7537Z" fill="black"/>
</svg>

<svg
  xmlns="http://www.w3.org/2000/svg"
  width="24"
  height="24"
  viewBox="0 0 24 24"
  fill="none"
  stroke="currentColor"
  stroke-width="2"
  stroke-linecap="round"
  stroke-linejoin="round"
>
  <path
    fill-rule="evenodd"
    d="m27.886 6 4.108 1.14-.732 2.85 2.733.764-.732 2.85 2.733.763-.732 2.85 2.734.764-.733 2.85 2.734.763-.733 2.85 2.734.764-1.107 4.28L20.105 42l-4.1-1.145.733-2.85-2.734-.764.732-2.85-2.733-.763.732-2.85-2.733-.764.732-2.85-2.733-.763.732-2.85L6 22.787l1.09-4.27zM16.207 28.5a9 9 0 1 0 15.589-9 9 9 0 0 0-15.589 9m1.735-1.002A6.999 6.999 0 1 0 30.064 20.5a6.999 6.999 0 0 0-12.122 6.998m8.558.831a5 5 0 1 1-5-8.658 5 5 0 0 1 5 8.658m-.909-1.575a3.18 3.18 0 1 1-3.18-5.51 3.18 3.18 0 0 1 3.18 5.51"
    clip-rule="evenodd"
  />
</svg>
